src/assets/filled/CloudDrizzle.svg

<svg width="24" height="24" viewBox="0 0 24 24"  xmlns="http://www.w3.org/2000/svg">
<path d="M20.17 17.5701C19.64 18.0601 19.03 18.4301 18.37 18.6801C17.71 18.9301 17 18.4501 17 17.7401V16.4201C17 14.4701 15.42 12.8901 13.47 12.8901H10.53C8.58 12.8901 7 14.4701 7 16.4201V18.0001C7 18.5501 6.55 19.0001 6 19.0001H5.55C3.1 18.6301 2 16.6401 2 14.8601C2 13.1801 2.98 11.3201 5.11 10.8001C4.52 8.47006 5.02 6.28006 6.54 4.69006C8.27 2.88006 11.03 2.16006 13.41 2.90006C15.6 3.57006 17.14 5.37006 17.69 7.87006C19.6 8.30006 21.13 9.74006 21.74 11.7401C22.4 13.9101 21.8 16.1401 20.17 17.5701Z" />
<path d="M13.47 14.39H10.53C9.26 14.39 8.5 15.15 8.5 16.42V19.36C8.5 20.63 9.26 21.39 10.53 21.39H13.47C14.74 21.39 15.5 20.63 15.5 19.36V16.42C15.5 15.15 14.74 14.39 13.47 14.39ZM11.71 18.84L10.47 20.07C10.38 20.16 10.26 20.21 10.15 20.21C10.02 20.21 9.91 20.16 9.82 20.07C9.64 19.89 9.64 19.6 9.82 19.42L11.05 18.18C11.24 18 11.53 18 11.71 18.18C11.89 18.36 11.89 18.66 11.71 18.84ZM11.71 16.36L10.47 17.6C10.38 17.69 10.26 17.74 10.15 17.74C10.02 17.74 9.91 17.69 9.82 17.6C9.64 17.42 9.64 17.12 9.82 16.94L11.05 15.71C11.24 15.53 11.53 15.53 11.71 15.71C11.89 15.89 11.89 16.18 11.71 16.36ZM14.18 18.84L12.95 20.07C12.85 20.16 12.74 20.21 12.62 20.21C12.5 20.21 12.38 20.16 12.29 20.07C12.11 19.89 12.11 19.6 12.29 19.42L13.53 18.18C13.71 18 14 18 14.18 18.18C14.36 18.36 14.36 18.66 14.18 18.84ZM14.18 16.36L12.95 17.6C12.85 17.69 12.74 17.74 12.62 17.74C12.5 17.74 12.38 17.69 12.29 17.6C12.11 17.42 12.11 17.12 12.29 16.94L13.53 15.71C13.71 15.53 14 15.53 14.18 15.71C14.36 15.89 14.36 16.18 14.18 16.36Z" />
</svg>

<?xml version="1.0" encoding="UTF-8"?>
<svg width="24" height="24" viewBox="0 0 24 24" xmlns="http://www.w3.org/2000/svg">
 <path d="m20.17 17.57c-0.53 0.49-1.14 0.86-1.8 1.11s-1.37-0.23-1.37-0.94v-1.32c0-1.95-1.58-3.53-3.53-3.53h-2.94c-1.95 0-3.53 1.58-3.53 3.53v1.58c0 0.55-0.45 1-1 1h-0.45c-2.45-0.37-3.55-2.36-3.55-4.14 0-1.68 0.98-3.54 3.11-4.06-0.59-2.33-0.09-4.52 1.43-6.11 1.73-1.81 4.49-2.53 6.87-1.79 2.19 0.67 3.73 2.47 4.28 4.97 1.91 0.43 3.44 1.87 4.05 3.87 0.66 2.17 0.06 4.4-1.57 5.83z"/>
 <path d="m13.47 14.39h-2.94c-1.27 0-2.03 0.76-2.03 2.03v2.94c0 1.27 0.76 2.03 2.03 2.03h2.94c1.27 0 2.03-0.76 2.03-2.03v-2.94c0-1.27-0.76-2.03-2.03-2.03zm-1.76 4.45-1.24 1.23c-0.09 0.09-0.21 0.14-0.32 0.14-0.13 0-0.24-0.05-0.33-0.14-0.18-0.18-0.18-0.47 0-0.65l1.23-1.24c0.19-0.18 0.48-0.18 0.66 0s0.18 0.48 0 0.66zm0-2.48-1.24 1.24c-0.09 0.09-0.21 0.14-0.32 0.14-0.13 0-0.24-0.05-0.33-0.14-0.18-0.18-0.18-0.48 0-0.66l1.23-1.23c0.19-0.18 0.48-0.18 0.66 0s0.18 0.47 0 0.65zm2.47 2.48-1.23 1.23c-0.1 0.09-0.21 0.14-0.33 0.14s-0.24-0.05-0.33-0.14c-0.18-0.18-0.18-0.47 0-0.65l1.24-1.24c0.18-0.18 0.47-0.18 0.65 0s0.18 0.48 0 0.66zm0-2.48-1.23 1.24c-0.1 0.09-0.21 0.14-0.33 0.14s-0.24-0.05-0.33-0.14c-0.18-0.18-0.18-0.48 0-0.66l1.24-1.23c0.18-0.18 0.47-0.18 0.65 0s0.18 0.47 0 0.65z"/>
</svg>
